public/logos/II.svg

<?xml version="1.0" encoding="UTF-8"?>
<svg xmlns="http://www.w3.org/2000/svg" xmlns:xlink="http://www.w3.org/1999/xlink" width="176pt" height="29.56pt" viewBox="0 0 176 29.56" version="1.1">
<defs>
<clipPath id="clip1">
  <path d="M 140 7 L 164 7 L 164 29.558594 L 140 29.558594 Z M 140 7 "/>
</clipPath>
</defs>
<g id="surface1">
<path style=" stroke:none;fill-rule:nonzero;fill:rgb(29.103088%,66.673279%,89.271545%);fill-opacity:1;" d="M 4.242188 2.074219 L 9.585938 2.074219 L 5.34375 23.890625 L 0 23.890625 L 4.242188 2.074219 "/>
<path style=" stroke:none;fill-rule:nonzero;fill:rgb(29.103088%,66.673279%,89.271545%);fill-opacity:1;" d="M 13.070312 21.660156 L 16.011719 21.660156 C 16.875 21.660156 17.640625 21.566406 18.316406 21.378906 C 18.984375 21.191406 19.558594 20.933594 20.039062 20.605469 C 20.515625 20.277344 20.898438 19.882812 21.1875 19.421875 C 21.472656 18.960938 21.671875 18.464844 21.773438 17.933594 C 21.894531 17.320312 21.914062 16.753906 21.832031 16.230469 C 21.753906 15.710938 21.542969 15.257812 21.203125 14.878906 C 20.863281 14.5 20.382812 14.199219 19.761719 13.976562 C 19.140625 13.753906 18.347656 13.644531 17.382812 13.644531 L 14.628906 13.644531 Z M 15.035156 11.535156 L 18.558594 11.535156 C 19.128906 11.535156 19.652344 11.445312 20.132812 11.269531 C 20.613281 11.09375 21.039062 10.847656 21.410156 10.53125 C 21.777344 10.210938 22.082031 9.835938 22.328125 9.398438 C 22.570312 8.960938 22.742188 8.484375 22.84375 7.960938 C 22.957031 7.394531 22.953125 6.875 22.839844 6.402344 C 22.726562 5.933594 22.496094 5.527344 22.152344 5.1875 C 21.800781 4.847656 21.324219 4.582031 20.710938 4.394531 C 20.101562 4.207031 19.355469 4.113281 18.46875 4.113281 L 16.480469 4.113281 Z M 11.515625 2.074219 L 20.875 2.074219 C 22.136719 2.074219 23.265625 2.207031 24.261719 2.472656 C 25.257812 2.738281 26.085938 3.117188 26.738281 3.605469 C 27.390625 4.09375 27.863281 4.679688 28.148438 5.367188 C 28.433594 6.050781 28.496094 6.816406 28.332031 7.65625 C 28.230469 8.175781 28.082031 8.65625 27.882812 9.09375 C 27.683594 9.527344 27.417969 9.941406 27.089844 10.328125 C 26.761719 10.710938 26.34375 11.082031 25.84375 11.441406 C 25.34375 11.796875 24.746094 12.152344 24.054688 12.503906 C 24.660156 12.707031 25.203125 12.980469 25.671875 13.320312 C 26.148438 13.660156 26.535156 14.058594 26.839844 14.511719 C 27.140625 14.964844 27.351562 15.46875 27.464844 16.019531 C 27.578125 16.570312 27.574219 17.15625 27.453125 17.78125 C 27.289062 18.628906 26.9375 19.425781 26.402344 20.171875 C 25.863281 20.914062 25.179688 21.558594 24.347656 22.109375 C 23.515625 22.660156 22.558594 23.09375 21.484375 23.414062 C 20.40625 23.730469 19.25 23.890625 18.011719 23.890625 L 7.273438 23.890625 L 11.515625 2.074219 "/>
<path style=" stroke:none;fill-rule:nonzero;fill:rgb(29.103088%,66.673279%,89.271545%);fill-opacity:1;" d="M 34.523438 12.964844 C 34.246094 14.382812 34.214844 15.632812 34.429688 16.714844 C 34.644531 17.800781 35.035156 18.707031 35.601562 19.4375 C 36.167969 20.171875 36.878906 20.726562 37.730469 21.105469 C 38.582031 21.488281 39.507812 21.675781 40.503906 21.675781 C 41.265625 21.675781 41.996094 21.542969 42.710938 21.277344 C 43.417969 21.011719 44.105469 20.652344 44.773438 20.203125 C 45.4375 19.757812 46.078125 19.238281 46.691406 18.648438 C 47.304688 18.058594 47.90625 17.4375 48.496094 16.792969 L 50.40625 18.445312 C 49.78125 19.214844 49.054688 19.957031 48.234375 20.671875 C 47.417969 21.386719 46.53125 22.019531 45.570312 22.570312 C 44.613281 23.121094 43.601562 23.558594 42.539062 23.890625 C 41.476562 24.21875 40.390625 24.382812 39.28125 24.382812 C 37.40625 24.382812 35.734375 24.109375 34.257812 23.566406 C 32.78125 23.019531 31.5625 22.25 30.605469 21.25 C 29.648438 20.253906 28.984375 19.050781 28.617188 17.644531 C 28.25 16.238281 28.230469 14.675781 28.566406 12.964844 C 28.886719 11.308594 29.492188 9.78125 30.375 8.386719 C 31.257812 6.992188 32.351562 5.785156 33.65625 4.769531 C 34.960938 3.753906 36.445312 2.964844 38.109375 2.394531 C 39.773438 1.828125 41.539062 1.546875 43.410156 1.546875 C 44.671875 1.546875 45.792969 1.691406 46.78125 1.988281 C 47.769531 2.28125 48.636719 2.691406 49.386719 3.214844 C 50.132812 3.734375 50.773438 4.355469 51.300781 5.078125 C 51.832031 5.796875 52.269531 6.589844 52.609375 7.449219 L 50.039062 9.03125 C 49.699219 8.386719 49.320312 7.769531 48.902344 7.1875 C 48.480469 6.601562 48.007812 6.09375 47.480469 5.664062 C 46.949219 5.230469 46.371094 4.890625 45.746094 4.632812 C 45.121094 4.378906 44.445312 4.25 43.71875 4.25 C 42.710938 4.25 41.71875 4.4375 40.742188 4.8125 C 39.769531 5.1875 38.863281 5.742188 38.03125 6.480469 C 37.195312 7.21875 36.46875 8.128906 35.855469 9.210938 C 35.242188 10.296875 34.796875 11.546875 34.523438 12.964844 "/>
<path style=" stroke:none;fill-rule:nonzero;fill:rgb(17.9245%,19.833374%,57.699585%);fill-opacity:1;" d="M 60.667969 15.914062 L 67.15625 15.914062 L 65.828125 8.953125 Z M 69.828125 1.8125 L 74.03125 23.8125 L 68.621094 23.8125 L 67.507812 17.929688 L 59.136719 17.929688 L 54.738281 23.8125 L 51.140625 23.8125 L 67.539062 1.8125 L 69.828125 1.8125 "/>
<path style=" stroke:none;fill-rule:nonzero;fill:rgb(17.9245%,19.833374%,57.699585%);fill-opacity:1;" d="M 81.804688 2.398438 C 81.894531 2.0625 82.046875 1.75 82.265625 1.457031 C 82.484375 1.167969 82.742188 0.914062 83.042969 0.695312 C 83.339844 0.476562 83.667969 0.304688 84.019531 0.179688 C 84.371094 0.0585938 84.734375 -0.00390625 85.101562 -0.00390625 C 85.472656 -0.00390625 85.800781 0.0585938 86.085938 0.179688 C 86.371094 0.304688 86.605469 0.476562 86.789062 0.695312 C 86.972656 0.914062 87.09375 1.167969 87.15625 1.457031 C 87.21875 1.75 87.207031 2.0625 87.113281 2.398438 C 87.023438 2.734375 86.871094 3.046875 86.65625 3.332031 C 86.4375 3.617188 86.179688 3.871094 85.878906 4.089844 C 85.582031 4.308594 85.253906 4.480469 84.902344 4.601562 C 84.550781 4.726562 84.1875 4.785156 83.820312 4.785156 C 83.449219 4.785156 83.121094 4.726562 82.835938 4.601562 C 82.546875 4.480469 82.316406 4.308594 82.132812 4.089844 C 81.949219 3.871094 81.828125 3.617188 81.765625 3.332031 C 81.699219 3.046875 81.714844 2.734375 81.804688 2.398438 Z M 80.398438 8.46875 L 85.683594 7.105469 L 81.210938 23.8125 L 76.285156 23.8125 L 80.398438 8.46875 "/>
<path style=" stroke:none;fill-rule:nonzero;fill:rgb(17.9245%,19.833374%,57.699585%);fill-opacity:1;" d="M 90.234375 23.8125 L 85.308594 23.8125 L 89.660156 7.578125 L 94.585938 7.578125 L 94.261719 8.785156 C 94.957031 8.238281 95.675781 7.792969 96.417969 7.449219 C 97.15625 7.109375 97.898438 6.9375 98.640625 6.9375 C 99.085938 6.9375 99.488281 6.996094 99.84375 7.113281 C 100.199219 7.230469 100.492188 7.390625 100.726562 7.585938 C 100.960938 7.78125 101.125 8.011719 101.222656 8.273438 C 101.320312 8.539062 101.328125 8.820312 101.246094 9.121094 C 101.167969 9.414062 101.039062 9.679688 100.863281 9.921875 C 100.6875 10.160156 100.480469 10.367188 100.238281 10.535156 C 99.996094 10.703125 99.734375 10.835938 99.453125 10.929688 C 99.167969 11.023438 98.882812 11.070312 98.589844 11.070312 C 98.199219 11.070312 97.894531 11.011719 97.679688 10.886719 C 97.46875 10.765625 97.277344 10.628906 97.109375 10.484375 C 96.941406 10.339844 96.765625 10.203125 96.585938 10.082031 C 96.40625 9.957031 96.160156 9.894531 95.84375 9.894531 C 95.6875 9.894531 95.511719 9.957031 95.308594 10.082031 C 95.105469 10.203125 94.898438 10.371094 94.675781 10.585938 C 94.457031 10.796875 94.238281 11.039062 94.015625 11.308594 C 93.789062 11.578125 93.574219 11.851562 93.363281 12.132812 L 90.234375 23.8125 "/>
<path style=" stroke:none;fill-rule:nonzero;fill:rgb(17.9245%,19.833374%,57.699585%);fill-opacity:1;" d="M 106.917969 7.273438 L 108.558594 17.089844 L 115.449219 7.171875 L 116.425781 7.171875 L 118.105469 16.957031 L 124.851562 7.273438 L 128.0625 7.273438 L 116.269531 24.183594 L 114 24.183594 L 112.640625 16.03125 L 106.960938 24.183594 L 104.539062 24.183594 L 101.742188 7.273438 L 106.917969 7.273438 "/>
<path style=" stroke:none;fill-rule:nonzero;fill:rgb(17.9245%,19.833374%,57.699585%);fill-opacity:1;" d="M 135.808594 15.425781 C 135.285156 15.628906 134.742188 15.859375 134.1875 16.121094 C 133.628906 16.386719 133.109375 16.675781 132.632812 16.996094 C 132.152344 17.316406 131.742188 17.65625 131.402344 18.011719 C 131.058594 18.371094 130.835938 18.746094 130.730469 19.140625 C 130.644531 19.453125 130.609375 19.746094 130.621094 20.023438 C 130.632812 20.296875 130.679688 20.539062 130.761719 20.746094 C 130.847656 20.953125 130.964844 21.117188 131.109375 21.242188 C 131.253906 21.363281 131.421875 21.425781 131.613281 21.425781 C 132.007812 21.425781 132.445312 21.300781 132.933594 21.054688 C 133.417969 20.808594 133.957031 20.496094 134.554688 20.113281 Z M 138.519531 23.8125 L 133.5625 23.8125 L 133.910156 22.519531 C 133.578125 22.742188 133.257812 22.953125 132.941406 23.148438 C 132.625 23.34375 132.289062 23.515625 131.929688 23.660156 C 131.570312 23.808594 131.179688 23.917969 130.757812 23.996094 C 130.332031 24.074219 129.847656 24.113281 129.296875 24.113281 C 128.546875 24.113281 127.902344 24.007812 127.363281 23.796875 C 126.828125 23.582031 126.398438 23.289062 126.082031 22.914062 C 125.761719 22.539062 125.558594 22.09375 125.472656 21.578125 C 125.386719 21.0625 125.421875 20.507812 125.582031 19.914062 C 125.75 19.285156 126.019531 18.722656 126.386719 18.222656 C 126.757812 17.726562 127.199219 17.273438 127.71875 16.871094 C 128.234375 16.46875 128.8125 16.105469 129.453125 15.777344 C 130.097656 15.453125 130.765625 15.160156 131.464844 14.894531 C 132.160156 14.632812 132.878906 14.390625 133.605469 14.171875 C 134.339844 13.953125 135.0625 13.738281 135.78125 13.527344 L 136.351562 13.410156 L 136.78125 11.796875 C 136.921875 11.28125 136.988281 10.839844 136.984375 10.476562 C 136.980469 10.113281 136.914062 9.816406 136.785156 9.585938 C 136.65625 9.355469 136.472656 9.191406 136.230469 9.089844 C 135.988281 8.988281 135.703125 8.9375 135.378906 8.9375 C 134.988281 8.9375 134.644531 8.988281 134.355469 9.089844 C 134.066406 9.191406 133.816406 9.332031 133.605469 9.507812 C 133.394531 9.6875 133.222656 9.894531 133.089844 10.121094 C 132.953125 10.351562 132.851562 10.601562 132.777344 10.871094 C 132.695312 11.171875 132.585938 11.46875 132.449219 11.753906 C 132.3125 12.039062 132.128906 12.289062 131.902344 12.507812 C 131.675781 12.726562 131.398438 12.902344 131.074219 13.03125 C 130.746094 13.160156 130.359375 13.222656 129.910156 13.222656 C 129.5625 13.222656 129.261719 13.171875 129.007812 13.0625 C 128.746094 12.957031 128.542969 12.8125 128.390625 12.628906 C 128.238281 12.441406 128.140625 12.222656 128.097656 11.964844 C 128.054688 11.707031 128.074219 11.429688 128.152344 11.140625 C 128.300781 10.578125 128.632812 10.058594 129.140625 9.578125 C 129.652344 9.09375 130.277344 8.675781 131.023438 8.324219 C 131.769531 7.972656 132.59375 7.695312 133.503906 7.5 C 134.414062 7.304688 135.339844 7.207031 136.28125 7.207031 C 137.445312 7.207031 138.421875 7.308594 139.207031 7.519531 C 139.988281 7.726562 140.605469 8.023438 141.050781 8.410156 C 141.496094 8.792969 141.773438 9.261719 141.886719 9.8125 C 141.996094 10.359375 141.960938 10.972656 141.78125 11.644531 L 138.519531 23.8125 "/>
<g clip-path="url(#clip1)" clip-rule="nonzero">
<path style=" stroke:none;fill-rule:nonzero;fill:rgb(17.9245%,19.833374%,57.699585%);fill-opacity:1;" d="M 145.371094 7.273438 L 150.582031 7.273438 L 153.039062 17.292969 L 160.265625 7.273438 L 163.742188 7.273438 L 150.730469 25.339844 C 150.269531 25.980469 149.742188 26.558594 149.148438 27.082031 C 148.554688 27.601562 147.9375 28.042969 147.296875 28.410156 C 146.65625 28.773438 146.015625 29.054688 145.371094 29.257812 C 144.730469 29.460938 144.121094 29.558594 143.550781 29.558594 C 143.125 29.558594 142.734375 29.507812 142.375 29.398438 C 142.019531 29.292969 141.71875 29.144531 141.480469 28.957031 C 141.238281 28.765625 141.066406 28.539062 140.96875 28.28125 C 140.871094 28.023438 140.863281 27.746094 140.941406 27.441406 C 140.996094 27.242188 141.089844 27.035156 141.21875 26.820312 C 141.347656 26.609375 141.523438 26.414062 141.742188 26.242188 C 141.964844 26.066406 142.234375 25.925781 142.554688 25.8125 C 142.878906 25.699219 143.257812 25.644531 143.691406 25.644531 C 143.996094 25.644531 144.222656 25.695312 144.375 25.796875 C 144.527344 25.894531 144.660156 26.003906 144.773438 26.125 C 144.890625 26.242188 145.011719 26.351562 145.140625 26.449219 C 145.269531 26.550781 145.453125 26.601562 145.6875 26.601562 C 145.847656 26.601562 146.035156 26.507812 146.261719 26.324219 C 146.480469 26.140625 146.710938 25.914062 146.945312 25.644531 C 147.179688 25.375 147.410156 25.085938 147.640625 24.777344 C 147.867188 24.46875 148.070312 24.191406 148.25 23.945312 L 149.183594 22.652344 L 145.371094 7.273438 "/>
</g>
<path style=" stroke:none;fill-rule:nonzero;fill:rgb(17.9245%,19.833374%,57.699585%);fill-opacity:1;" d="M 164.460938 19.273438 C 164.515625 20.148438 164.742188 20.835938 165.144531 21.332031 C 165.539062 21.832031 166.144531 22.082031 166.949219 22.082031 C 167.285156 22.082031 167.609375 22.035156 167.921875 21.945312 C 168.230469 21.855469 168.507812 21.738281 168.746094 21.585938 C 168.988281 21.433594 169.195312 21.257812 169.359375 21.054688 C 169.527344 20.855469 169.640625 20.640625 169.699219 20.417969 C 169.800781 20.035156 169.820312 19.695312 169.757812 19.390625 C 169.691406 19.089844 169.566406 18.816406 169.378906 18.570312 C 169.191406 18.320312 168.949219 18.097656 168.652344 17.894531 C 168.355469 17.695312 168.027344 17.5 167.675781 17.308594 C 167.109375 17.027344 166.558594 16.722656 166.015625 16.390625 C 165.46875 16.0625 165 15.679688 164.605469 15.25 C 164.210938 14.816406 163.929688 14.328125 163.765625 13.777344 C 163.597656 13.230469 163.609375 12.589844 163.808594 11.863281 C 163.988281 11.179688 164.300781 10.554688 164.738281 9.988281 C 165.175781 9.421875 165.707031 8.9375 166.335938 8.535156 C 166.96875 8.132812 167.667969 7.816406 168.445312 7.59375 C 169.222656 7.371094 170.050781 7.257812 170.921875 7.257812 C 171.71875 7.257812 172.402344 7.332031 172.972656 7.476562 C 173.546875 7.621094 174.03125 7.832031 174.425781 8.105469 C 174.824219 8.378906 175.144531 8.714844 175.394531 9.113281 C 175.640625 9.511719 175.839844 9.957031 176 10.449219 L 172.890625 11.460938 C 172.871094 10.945312 172.792969 10.539062 172.660156 10.25 C 172.523438 9.957031 172.359375 9.738281 172.171875 9.59375 C 171.980469 9.449219 171.777344 9.359375 171.5625 9.332031 C 171.34375 9.304688 171.152344 9.289062 170.984375 9.289062 C 170.679688 9.289062 170.382812 9.324219 170.089844 9.390625 C 169.796875 9.457031 169.527344 9.558594 169.28125 9.6875 C 169.03125 9.816406 168.824219 9.972656 168.648438 10.15625 C 168.476562 10.339844 168.359375 10.558594 168.292969 10.804688 C 168.207031 11.117188 168.210938 11.410156 168.300781 11.675781 C 168.394531 11.945312 168.546875 12.199219 168.761719 12.441406 C 168.976562 12.683594 169.25 12.910156 169.578125 13.121094 C 169.90625 13.335938 170.277344 13.539062 170.6875 13.726562 C 171.292969 14.007812 171.878906 14.320312 172.441406 14.667969 C 173.003906 15.015625 173.480469 15.410156 173.867188 15.84375 C 174.253906 16.28125 174.527344 16.769531 174.691406 17.308594 C 174.855469 17.847656 174.851562 18.445312 174.671875 19.105469 C 174.484375 19.8125 174.1875 20.472656 173.789062 21.089844 C 173.386719 21.707031 172.863281 22.242188 172.222656 22.703125 C 171.578125 23.164062 170.804688 23.523438 169.898438 23.785156 C 168.992188 24.050781 167.945312 24.183594 166.757812 24.183594 C 165.75 24.183594 164.925781 24.066406 164.277344 23.835938 C 163.636719 23.609375 163.117188 23.308594 162.730469 22.9375 C 162.34375 22.570312 162.046875 22.15625 161.84375 21.703125 C 161.640625 21.25 161.480469 20.796875 161.363281 20.351562 L 164.460938 19.273438 "/>
</g>
</svg>

<svg xmlns="http://www.w3.org/2000/svg" width="176pt" height="39.413" viewBox="0 0 176 29.56"><defs><clipPath id="a"><path d="M140 7h24v22.559h-24Zm0 0"/></clipPath></defs><path d="M4.242 2.074h5.344L5.344 23.891H0zM13.07 21.66h2.942q1.293 0 2.304-.281 1.002-.281 1.723-.774.716-.492 1.148-1.183c.286-.461.485-.957.586-1.488q.183-.92.059-1.704a2.55 2.55 0 0 0-.629-1.351q-.51-.569-1.441-.902t-2.38-.332H14.63Zm1.965-10.125h3.524q.854-.001 1.574-.265t1.277-.739q.55-.478.918-1.133.363-.654.516-1.437.168-.85-.004-1.559a2.5 2.5 0 0 0-.688-1.215c-.351-.34-.828-.605-1.441-.792q-.914-.282-2.242-.282H16.48Zm-3.52-9.46h9.36q1.892 0 3.387.398c.996.265 1.824.644 2.476 1.132q.981.733 1.41 1.762.43 1.028.184 2.29-.151.78-.45 1.437-.298.651-.792 1.234a7 7 0 0 1-1.246 1.113q-.751.534-1.79 1.063a6 6 0 0 1 1.618.816q.712.511 1.168 1.192c.3.453.512.957.625 1.508q.17.824-.012 1.761a6.04 6.04 0 0 1-1.05 2.39 7.9 7.9 0 0 1-2.055 1.938c-.832.551-1.79.985-2.864 1.305a12.3 12.3 0 0 1-3.472.477H7.273zM34.523 12.965q-.416 2.127-.093 3.75.322 1.628 1.172 2.723a5.44 5.44 0 0 0 2.128 1.667c.852.383 1.778.57 2.774.57.762 0 1.492-.132 2.207-.398a10 10 0 0 0 2.062-1.074 14 14 0 0 0 1.918-1.555q.92-.886 1.805-1.855l1.91 1.652a18 18 0 0 1-2.172 2.227 16.4 16.4 0 0 1-2.664 1.898q-1.436.825-3.03 1.32a11 11 0 0 1-3.259.493q-2.81-.001-5.023-.817-2.216-.817-3.653-2.316-1.436-1.496-1.988-3.605c-.367-1.407-.387-2.97-.05-4.68q.482-2.486 1.808-4.578a14.1 14.1 0 0 1 3.281-3.617q1.958-1.522 4.453-2.375 2.495-.85 5.301-.848c1.262 0 2.383.144 3.371.441q1.482.44 2.606 1.227A8 8 0 0 1 51.3 5.078c.531.719.969 1.512 1.308 2.371l-2.57 1.582a16 16 0 0 0-1.137-1.844 8 8 0 0 0-1.422-1.523 6.9 6.9 0 0 0-1.734-1.031 5.3 5.3 0 0 0-2.027-.383q-1.512 0-2.977.563a8.9 8.9 0 0 0-2.71 1.667q-1.256 1.109-2.177 2.73-.92 1.63-1.332 3.755" style="stroke:none;fill-rule:nonzero;fill:#4aaae4;fill-opacity:1"/><path d="M60.668 15.914h6.488l-1.328-6.96Zm9.16-14.101 4.203 22h-5.41l-1.113-5.883h-8.371l-4.399 5.883h-3.597l16.398-22zM81.805 2.398q.134-.503.46-.941.328-.433.778-.762A3.8 3.8 0 0 1 84.02.18a3.3 3.3 0 0 1 1.082-.184q.556.001.984.184.428.188.703.515.275.33.367.762.096.438-.043.941a2.7 2.7 0 0 1-.457.934 3.77 3.77 0 0 1-1.754 1.27 3.2 3.2 0 0 1-1.082.183c-.37 0-.699-.058-.984-.183a1.8 1.8 0 0 1-.703-.512 1.74 1.74 0 0 1-.367-.758 1.9 1.9 0 0 1 .039-.934m-1.407 6.07 5.286-1.363-4.473 16.708h-4.926zM90.234 23.813H85.31L89.66 7.578h4.926l-.324 1.207a11 11 0 0 1 2.156-1.336q1.108-.51 2.223-.511.668 0 1.203.175c.355.117.648.278.883.473q.35.294.496.687.146.398.023.848a2.4 2.4 0 0 1-.383.8 2.7 2.7 0 0 1-.625.614q-.363.252-.785.395c-.285.093-.57.14-.863.14-.39 0-.695-.058-.91-.183a3.7 3.7 0 0 1-.57-.403 6 6 0 0 0-.524-.402q-.269-.187-.742-.187-.232 0-.535.187a3.6 3.6 0 0 0-.633.504q-.328.316-.66.723c-.227.27-.442.543-.653.824zM106.918 7.273l1.64 9.817 6.891-9.918h.977l1.68 9.785 6.746-9.684h3.21l-11.792 16.91H114l-1.36-8.152-5.68 8.153h-2.42l-2.798-16.91zM135.809 15.426c-.524.203-1.067.433-1.621.695q-.84.397-1.555.875-.72.481-1.23 1.016-.515.538-.673 1.129a2.9 2.9 0 0 0-.109.882q.018.412.14.723.131.31.348.496a.76.76 0 0 0 .504.184c.395 0 .832-.125 1.32-.371a19 19 0 0 0 1.622-.942Zm2.71 8.387h-4.957l.348-1.293c-.332.222-.652.433-.969.628a6.6 6.6 0 0 1-1.011.512c-.36.149-.75.258-1.172.336-.426.078-.91.117-1.461.117q-1.125 0-1.934-.316c-.535-.215-.965-.508-1.281-.883a2.7 2.7 0 0 1-.61-1.336q-.129-.773.11-1.664a5 5 0 0 1 .805-1.691c.37-.496.812-.95 1.332-1.352a11 11 0 0 1 1.734-1.094 21 21 0 0 1 2.012-.882 34 34 0 0 1 2.14-.723q1.1-.328 2.176-.645l.57-.117.43-1.613q.21-.775.203-1.32t-.199-.891a1.1 1.1 0 0 0-.555-.496 2.2 2.2 0 0 0-.851-.152c-.39 0-.734.05-1.024.152q-.433.153-.75.418c-.21.18-.382.387-.515.613a3 3 0 0 0-.313.75c-.082.3-.191.598-.328.883a2.52 2.52 0 0 1-1.375 1.277q-.491.194-1.164.192-.52.002-.902-.16a1.5 1.5 0 0 1-.617-.434 1.4 1.4 0 0 1-.293-.664 1.9 1.9 0 0 1 .054-.824q.225-.843.989-1.563.765-.726 1.882-1.254c.747-.351 1.57-.629 2.48-.824a13.2 13.2 0 0 1 2.778-.293q1.746-.002 2.926.313 1.173.31 1.844.89.666.576.836 1.402.165.822-.106 1.833z" style="stroke:none;fill-rule:nonzero;fill:#2e3393;fill-opacity:1"/><g clip-path="url(#a)"><path d="M145.371 7.273h5.211l2.457 10.02 7.227-10.02h3.476L150.73 25.34q-.69.959-1.582 1.742-.89.779-1.851 1.328a10 10 0 0 1-1.926.848c-.64.203-1.25.3-1.82.3-.426 0-.817-.05-1.176-.16a2.7 2.7 0 0 1-.895-.441 1.57 1.57 0 0 1-.511-.676 1.36 1.36 0 0 1-.028-.84q.083-.299.278-.62a2.2 2.2 0 0 1 .523-.579c.223-.176.492-.316.813-.43a3.5 3.5 0 0 1 1.136-.167q.457 0 .684.152.228.147.398.328.176.177.368.324.194.153.547.153c.16 0 .347-.094.574-.278.218-.183.449-.41.683-.68q.351-.403.696-.867l.609-.832.934-1.293z" style="stroke:none;fill-rule:nonzero;fill:#2e3393;fill-opacity:1"/></g><path d="M164.46 19.273q.082 1.314.685 2.059c.394.5 1 .75 1.804.75a3.5 3.5 0 0 0 1.797-.496c.242-.152.45-.328.613-.531q.252-.301.34-.637.153-.573.059-1.027a2.1 2.1 0 0 0-.38-.82 3 3 0 0 0-.726-.676q-.447-.3-.976-.586a22 22 0 0 1-1.66-.918 6.3 6.3 0 0 1-1.41-1.141 3.76 3.76 0 0 1-.84-1.473c-.168-.547-.157-1.187.043-1.914q.272-1.024.93-1.875a6.3 6.3 0 0 1 1.597-1.453 8 8 0 0 1 2.11-.941 9 9 0 0 1 2.476-.336q1.195 0 2.05.219.863.217 1.454.628a3.4 3.4 0 0 1 .969 1.008q.367.598.605 1.336l-3.11 1.012q-.03-.776-.23-1.211-.206-.44-.488-.656a1.3 1.3 0 0 0-.61-.262 5 5 0 0 0-.578-.043q-.455 0-.894.102a3.3 3.3 0 0 0-.809.297 2.4 2.4 0 0 0-.633.468 1.5 1.5 0 0 0-.355.649c-.086.312-.082.605.008.87q.14.404.46.766.325.365.817.68.493.323 1.11.606a17 17 0 0 1 1.753.941q.846.524 1.426 1.176.58.656.824 1.465c.164.539.16 1.136-.02 1.796a6.9 6.9 0 0 1-.882 1.985 6.1 6.1 0 0 1-1.566 1.613q-.966.69-2.325 1.082-1.36.399-3.14.399c-1.008 0-1.832-.118-2.48-.348-.641-.227-1.16-.527-1.548-.898a3.9 3.9 0 0 1-.886-1.235 9 9 0 0 1-.48-1.351z" style="stroke:none;fill-rule:nonzero;fill:#2e3393;fill-opacity:1"/></svg>
